Gruvbox-Plus-Dark/apps/scalable/harddisk.svg

<svg width="256" height="256" style="isolation:isolate" version="1.1" viewBox="0 0 256 256" xmlns="http://www.w3.org/2000/svg">
  <defs>
    <linearGradient id="linearGradient31" x1=".5002" x2=".5002" y2="1" gradientTransform="matrix(244,0,0,228,5.986,12)" gradientUnits="userSpaceOnUse">
      <stop stop-color="#928374" offset="0"/>
      <stop stop-color="#928374" stop-opacity=".09804" offset=".1"/>
      <stop stop-opacity=".09804" offset=".9"/>
      <stop stop-opacity=".498" offset="1"/>
    </linearGradient>
    <filter id="a" x="-.04224" y="-.0452" width="1.084" height="1.108" color-interpolation-filters="sRGB">
      <feGaussianBlur in="SourceGraphic" stdDeviation="4.294"/>
      <feOffset dy="4" result="pf_100_offsetBlur"/>
      <feFlood flood-opacity=".4"/>
      <feComposite in2="pf_100_offsetBlur" operator="in" result="pf_100_dropShadow"/>
      <feBlend in="SourceGraphic" in2="pf_100_dropShadow"/>
    </filter>
    <linearGradient id="b" x1=".5002" x2=".5002" y2="1" gradientTransform="matrix(244,0,0,228,5.981,12.12)" gradientUnits="userSpaceOnUse">
      <stop stop-color="#504945" offset="0"/>
      <stop stop-color="#3c3836" offset="1"/>
    </linearGradient>
  </defs>
  <g transform="translate(9.09e-6 -.12)" filter="url(#a)" style="isolation:isolate">
    <path d="m165 12.12c72 0 85 15 85 87v56c0 70-13 85-85 85h-74c-72 0-85-15-85-85v-56c0-72 13-87 85-87z" fill="url(#b)"/>
  </g>
  <g transform="translate(9.09e-6 -.12)" opacity=".4" style="isolation:isolate">
    <path transform="translate(-.004996 .116)" d="m91 12c-72 0-85 15-85 87v56c0 70 13 85 85 85h74c72 0 85-15 85-85v-56c0-72-13-87-85-87zm0 4h74c68 0 80 15 80 83v56c0 66-12 81-80 81h-74c-68 0-80-15-80-81v-56c0-68 12-83 80-83z" fill="url(#linearGradient31)" opacity="1"/>
  </g>
  <g style="isolation:isolate">
    <defs>
      <filter id="IFhwPeHn75qMBbGmBdc4frxyS2Ranois" x="-.06133" y="-.06133" width="1.123" height="1.123" color-interpolation-filters="sRGB">
        <feGaussianBlur stdDeviation="4.294"/>
      </filter>
    </defs>
    <g filter="url(#IFhwPeHn75qMBbGmBdc4frxyS2Ranois)" opacity=".4">
      <path d="m129 45.24c-46.4 0-84.02 37.62-84.02 84.02s37.62 84.02 84.02 84.02 84.02-37.62 84.02-84.02-37.62-84.02-84.02-84.02z"/>
    </g>
    <linearGradient id="_lgradient_26" x1=".5" x2=".5" y2="1" gradientTransform="matrix(168 0 0 168 45 42.33)" gradientUnits="userSpaceOnUse">
      <stop stop-color="#d5c4a1" offset="0"/>
      <stop stop-color="#665c54" offset="1"/>
    </linearGradient>
    <path d="m45 126.4c0 46.37 37.65 84.02 84.02 84.02s84.02-37.65 84.02-84.02-37.65-84.02-84.02-84.02-84.02 37.65-84.02 84.02z" fill="url(#_lgradient_26)"/>
    <g opacity=".2">
      <path d="m129 199.9c-39.55 0-71.61-32.06-71.61-71.61s32.06-71.61 71.61-71.61 71.61 32.06 71.61 71.61-32.06 71.61-71.61 71.61z"/>
    </g>
    <linearGradient id="_lgradient_27" x1=".565" x2=".56" y1="1" y2=".018" gradientTransform="matrix(143.2 0 0 143.2 57.41 54.74)" gradientUnits="userSpaceOnUse">
      <stop stop-color="#a89984" offset="0"/>
      <stop stop-color="#ebdbb2" offset="1"/>
    </linearGradient>
    <path d="m129 198c-39.55 0-71.61-32.06-71.61-71.61s32.06-71.61 71.61-71.61 71.61 32.06 71.61 71.61-32.06 71.61-71.61 71.61z" fill="url(#_lgradient_27)"/>
    <path d="m115 105.8c-0.527-0.913-0.214-2.082 0.699-2.609s2.082-0.214 2.609 0.699 0.214 2.082-0.699 2.609-2.082 0.214-2.609-0.699zm24.82 43c-0.527-0.913-0.214-2.082 0.699-2.609s2.082-0.214 2.609 0.699 0.214 2.082-0.699 2.609-2.082 0.214-2.609-0.699zm-33.21-33.21c-0.913-0.527-1.226-1.696-0.699-2.609s1.696-1.226 2.609-0.699 1.226 1.696 0.699 2.609-1.696 1.226-2.609 0.699zm43 24.82c-0.913-0.527-1.226-1.696-0.699-2.609s1.696-1.226 2.609-0.699 1.226 1.696 0.699 2.609-1.696 1.226-2.609 0.699zm-45.37-12.16c-1.054 0-1.91-0.856-1.91-1.91s0.856-1.91 1.91-1.91 1.91 0.856 1.91 1.91-0.856 1.91-1.91 1.91zm49.65 0c-1.054 0-1.91-0.856-1.91-1.91s0.856-1.91 1.91-1.91 1.91 0.856 1.91 1.91-0.856 1.91-1.91 1.91zm-45.37 12.16c-0.913 0.527-2.082 0.214-2.609-0.699s-0.214-2.082 0.699-2.609 2.082-0.214 2.609 0.699 0.214 2.082-0.699 2.609zm43-24.82c-0.913 0.527-2.082 0.214-2.609-0.699s-0.214-2.082 0.699-2.609 2.082-0.214 2.609 0.699 0.214 2.082-0.699 2.609zm-33.21 33.21c-0.527 0.913-1.696 1.226-2.609 0.699s-1.226-1.696-0.699-2.609 1.696-1.226 2.609-0.699 1.226 1.696 0.699 2.609zm24.82-43c-0.527 0.913-1.696 1.226-2.609 0.699s-1.226-1.696-0.699-2.609 1.696-1.226 2.609-0.699 1.226 1.696 0.699 2.609zm-12.16 45.37c0 1.054-0.856 1.91-1.91 1.91s-1.91-0.856-1.91-1.91 0.856-1.91 1.91-1.91 1.91 0.856 1.91 1.91zm0-49.65c0 1.054-0.856 1.91-1.91 1.91s-1.91-0.856-1.91-1.91 0.856-1.91 1.91-1.91 1.91 0.856 1.91 1.91z" fill="#a89984" fill-rule="evenodd"/>
    <circle cx="129" cy="126.4" r="19.1" fill="#ebdbb2" vector-effect="non-scaling-stroke"/>
    <circle cx="129" cy="126.4" r="3.819" fill="#504945" vector-effect="non-scaling-stroke"/>
    <defs>
      <filter id="SZjG2dOTD35CZHp5UvJHRmrN1mVQNfpM" x="-.07736" y="-.2338" width="1.155" height="1.558" color-interpolation-filters="sRGB">
        <feGaussianBlur in="SourceGraphic" stdDeviation="4.294"/>
        <feOffset dx="0" dy="4" result="pf_100_offsetBlur"/>
        <feFlood flood-opacity=".4"/>
        <feComposite in2="pf_100_offsetBlur" operator="in" result="pf_100_dropShadow"/>
        <feBlend in="SourceGraphic" in2="pf_100_dropShadow"/>
      </filter>
    </defs>
    <g filter="url(#SZjG2dOTD35CZHp5UvJHRmrN1mVQNfpM)">
      <path d="m178.2 166.3s-112.7 42.05-118.8 43.68c-6.112 1.638-12.39-1.989-14.03-8.101-1.637-6.112 1.99-12.39 8.102-14.03s124.7-21.55 124.7-21.55zm-125.6 32.62c0-2.108 1.711-3.819 3.819-3.819s3.819 1.711 3.819 3.819-1.711 3.819-3.819 3.819-3.819-1.711-3.819-3.819z" fill="#d5c4a1" fill-rule="evenodd"/>
    </g>
    <g opacity=".2">
      <path d="m129 54.74c-39.55 0-71.61 32.06-71.61 71.61 0 0.32 0.02 0.635 0.024 0.955 0.514-39.11 32.36-70.65 71.58-70.65s71.07 31.55 71.58 70.65c4e-3 -0.32 0.025-0.635 0.025-0.955 0-39.55-32.06-71.61-71.61-71.61z" fill="#ebdbb2"/>
    </g>
    <g opacity=".4">
      <path d="m56.46 49.97c-1.013 0-1.984 0.403-2.7 1.119-0.717 0.716-1.119 1.688-1.119 2.7 0 2.11 1.71 3.819 3.819 3.819s3.819-1.709 3.819-3.819c0-1.012-0.402-1.984-1.118-2.7-0.717-0.716-1.688-1.119-2.701-1.119zm145.1 0c-1.013 0-1.984 0.403-2.7 1.119-0.717 0.716-1.119 1.688-1.119 2.7 0 1.013 0.402 1.985 1.119 2.701 0.716 0.716 1.687 1.118 2.7 1.118 2.109 0 3.819-1.709 3.819-3.819 0-1.012-0.402-1.984-1.118-2.7-0.717-0.716-1.688-1.119-2.701-1.119zm0 145.1c-1.013 0-1.984 0.403-2.7 1.119-0.717 0.716-1.119 1.688-1.119 2.7 0 1.013 0.402 1.985 1.119 2.701 0.716 0.716 1.687 1.118 2.7 1.118 2.109 0 3.819-1.709 3.819-3.819 0-2.109-1.71-3.819-3.819-3.819z" fill="#ebdbb2"/>
    </g>
  </g>
</svg>

<svg xmlns="http://www.w3.org/2000/svg" style="isolation:isolate" width="256" height="256" viewBox="0 0 256 256">
 <defs>
  <clipPath id="_clipPath_eaoqWVnQx5No5sC9YauAyS7gMqDYExbA">
   <rect width="256" height="256"/>
  </clipPath>
 </defs>
 <g clip-path="url(#_clipPath_eaoqWVnQx5No5sC9YauAyS7gMqDYExbA)">
  <defs>
   <filter id="e0eI2QFOvi9OAfgvvhEPkhnMmdywFGZA" width="400%" height="400%" x="-200%" y="-200%" color-interpolation-filters="sRGB" filterUnits="objectBoundingBox">
    <feGaussianBlur xmlns="http://www.w3.org/2000/svg" in="SourceGraphic" stdDeviation="4.294"/>
    <feOffset xmlns="http://www.w3.org/2000/svg" dx="0" dy="4" result="pf_100_offsetBlur"/>
    <feFlood xmlns="http://www.w3.org/2000/svg" flood-opacity=".4"/>
    <feComposite xmlns="http://www.w3.org/2000/svg" in2="pf_100_offsetBlur" operator="in" result="pf_100_dropShadow"/>
    <feBlend xmlns="http://www.w3.org/2000/svg" in="SourceGraphic" in2="pf_100_dropShadow" mode="normal"/>
   </filter>
  </defs>
  <g filter="url(#e0eI2QFOvi9OAfgvvhEPkhnMmdywFGZA)">
   <linearGradient id="_lgradient_24" x1=".993" x2=".002" y1=".988" y2=".193" gradientTransform="matrix(244.648,0,0,228.338,5.682,11.95)" gradientUnits="userSpaceOnUse">
    <stop offset="0%" style="stop-color:#3c3836"/>
    <stop offset="100%" style="stop-color:#665c54"/>
   </linearGradient>
   <path fill="url(#_lgradient_24)" d="M 165.691 11.95 C 239.746 11.95 250.33 22.507 250.33 96.494 L 250.33 155.745 C 250.33 229.731 239.746 240.288 165.691 240.288 L 90.321 240.288 C 16.265 240.288 5.682 229.731 5.682 155.745 L 5.682 96.494 C 5.682 22.507 16.265 11.95 90.321 11.95 L 165.691 11.95 Z"/>
  </g>
  <g opacity=".4">
   <linearGradient id="_lgradient_25" x1=".517" x2=".517" y1="0" y2="1" gradientTransform="matrix(244.65,0,0,228.34,5.68,11.95)" gradientUnits="userSpaceOnUse">
    <stop offset="0%" style="stop-color:#ebdbb2"/>
    <stop offset="12.5%" stop-opacity=".098" style="stop-color:#ebdbb2"/>
    <stop offset="92.5%" stop-opacity=".098" style="stop-color:#282828"/>
    <stop offset="100%" stop-opacity=".498" style="stop-color:#282828"/>
   </linearGradient>
   <path fill="url(#_lgradient_25)" fill-rule="evenodd" d="M 165.068 11.951 C 169.396 11.941 173.724 11.991 178.052 12.089 C 181.927 12.167 185.803 12.315 189.678 12.541 C 193.131 12.737 196.583 13.022 200.026 13.395 C 203.085 13.73 206.144 14.181 209.174 14.741 C 211.889 15.243 214.574 15.881 217.22 16.657 C 219.62 17.355 221.971 18.219 224.243 19.241 C 226.358 20.184 228.384 21.304 230.302 22.591 C 232.142 23.829 233.863 25.244 235.437 26.806 C 237.001 28.378 238.417 30.088 239.656 31.925 C 240.945 33.841 242.066 35.865 243.02 37.967 C 244.043 40.247 244.909 42.585 245.617 44.972 C 246.394 47.615 247.034 50.297 247.535 53.009 C 248.096 56.035 248.548 59.081 248.883 62.136 C 249.257 65.575 249.542 69.014 249.739 72.462 C 249.965 76.323 250.112 80.194 250.201 84.055 C 250.289 88.378 250.339 92.701 250.329 97.014 L 250.329 155.226 C 250.339 159.549 250.289 163.862 250.201 168.185 C 250.112 172.056 249.965 175.917 249.739 179.778 C 249.542 183.226 249.257 186.675 248.883 190.104 C 248.548 193.159 248.096 196.215 247.535 199.241 C 247.034 201.943 246.394 204.625 245.617 207.268 C 244.909 209.655 244.043 212.003 243.02 214.273 C 242.066 216.385 240.945 218.399 239.656 220.315 C 238.417 222.152 237.001 223.872 235.437 225.434 C 233.863 226.996 232.142 228.411 230.302 229.649 C 228.384 230.936 226.358 232.056 224.243 232.999 C 221.971 234.021 219.62 234.885 217.22 235.593 C 214.574 236.369 211.889 237.007 209.174 237.499 C 206.144 238.068 203.085 238.51 200.026 238.845 C 196.583 239.218 193.131 239.503 189.678 239.699 C 185.803 239.925 181.927 240.073 178.052 240.161 C 173.724 240.249 169.396 240.299 165.068 240.289 L 90.942 240.289 C 86.614 240.299 82.286 240.249 77.958 240.161 C 74.083 240.073 70.207 239.925 66.332 239.699 C 62.879 239.503 59.427 239.218 55.984 238.845 C 52.925 238.51 49.866 238.068 46.836 237.499 C 44.121 237.007 41.436 236.369 38.79 235.593 C 36.39 234.885 34.039 234.021 31.767 232.999 C 29.652 232.056 27.626 230.936 25.708 229.649 C 23.868 228.411 22.147 226.996 20.573 225.434 C 19.009 223.872 17.593 222.152 16.354 220.315 C 15.065 218.399 13.944 216.385 12.99 214.273 C 11.967 212.003 11.101 209.655 10.393 207.268 C 9.616 204.625 8.976 201.943 8.475 199.241 C 7.914 196.215 7.462 193.159 7.127 190.104 C 6.753 186.675 6.468 183.226 6.271 179.778 C 6.045 175.917 5.898 172.056 5.809 168.185 C 5.721 163.862 5.671 159.549 5.681 155.226 L 5.681 97.014 C 5.671 92.701 5.721 88.378 5.809 84.055 C 5.898 80.194 6.045 76.323 6.271 72.462 C 6.468 69.014 6.753 65.575 7.127 62.136 C 7.462 59.081 7.914 56.035 8.475 53.009 C 8.976 50.297 9.616 47.615 10.393 44.972 C 11.101 42.585 11.967 40.247 12.99 37.967 C 13.944 35.865 15.065 33.841 16.354 31.925 C 17.593 30.088 19.009 28.378 20.573 26.806 C 22.147 25.244 23.868 23.829 25.708 22.591 C 27.626 21.304 29.652 20.184 31.767 19.241 C 34.039 18.219 36.39 17.355 38.79 16.657 C 41.436 15.881 44.121 15.243 46.836 14.741 C 49.866 14.181 52.925 13.73 55.984 13.395 C 59.427 13.022 62.879 12.737 66.332 12.541 C 70.207 12.315 74.083 12.167 77.958 12.089 C 82.286 11.991 86.614 11.941 90.942 11.951 L 165.068 11.951 Z M 165.078 15.96 C 169.376 15.95 173.675 15.999 177.973 16.087 C 181.8 16.176 185.626 16.323 189.452 16.539 C 192.836 16.736 196.219 17.011 199.583 17.384 C 202.554 17.699 205.515 18.131 208.446 18.681 C 211.023 19.153 213.58 19.762 216.099 20.499 C 218.322 21.147 220.495 21.953 222.6 22.896 C 224.509 23.751 226.338 24.763 228.069 25.922 C 229.692 27.013 231.207 28.26 232.594 29.646 C 233.981 31.031 235.23 32.544 236.332 34.165 C 237.492 35.894 238.506 37.712 239.361 39.608 C 240.306 41.72 241.112 43.892 241.761 46.102 C 242.509 48.617 243.109 51.162 243.591 53.736 C 244.132 56.664 244.565 59.611 244.889 62.578 C 245.263 65.938 245.539 69.308 245.735 72.688 C 245.952 76.51 246.109 80.322 246.188 84.144 C 246.276 88.437 246.325 92.721 246.325 97.014 C 246.325 97.014 246.325 97.014 246.325 97.014 L 246.325 155.226 C 246.325 155.226 246.325 155.226 246.325 155.226 C 246.325 159.519 246.276 163.803 246.188 168.096 C 246.109 171.918 245.952 175.74 245.735 179.552 C 245.539 182.932 245.263 186.302 244.889 189.672 C 244.565 192.629 244.132 195.576 243.591 198.504 C 243.109 201.078 242.509 203.623 241.761 206.138 C 241.112 208.358 240.306 210.52 239.361 212.632 C 238.506 214.528 237.492 216.356 236.332 218.075 C 235.23 219.706 233.981 221.219 232.594 222.604 C 231.207 223.98 229.692 225.227 228.069 226.318 C 226.338 227.477 224.509 228.489 222.6 229.344 C 220.495 230.297 218.322 231.093 216.099 231.741 C 213.58 232.478 211.023 233.087 208.446 233.559 C 205.515 234.109 202.554 234.541 199.583 234.865 C 196.219 235.229 192.836 235.514 189.452 235.701 C 185.626 235.917 181.8 236.074 177.973 236.153 C 173.675 236.251 169.376 236.29 165.078 236.29 C 165.078 236.29 165.078 236.29 165.068 236.29 L 90.942 236.29 C 90.932 236.29 90.932 236.29 90.932 236.29 C 86.634 236.29 82.335 236.251 78.037 236.153 C 74.21 236.074 70.384 235.917 66.558 235.701 C 63.174 235.514 59.791 235.229 56.427 234.865 C 53.456 234.541 50.495 234.109 47.564 233.559 C 44.987 233.087 42.43 232.478 39.911 231.741 C 37.688 231.093 35.515 230.297 33.41 229.344 C 31.501 228.489 29.672 227.477 27.941 226.318 C 26.318 225.227 24.803 223.98 23.416 222.604 C 22.029 221.219 20.78 219.706 19.678 218.075 C 18.518 216.356 17.504 214.528 16.649 212.632 C 15.704 210.52 14.898 208.358 14.249 206.138 C 13.501 203.623 12.901 201.078 12.419 198.504 C 11.878 195.576 11.445 192.629 11.121 189.672 C 10.747 186.302 10.472 182.932 10.275 179.552 C 10.058 175.74 9.901 171.918 9.822 168.096 C 9.734 163.803 9.685 159.519 9.685 155.226 C 9.685 155.226 9.685 155.226 9.685 155.226 L 9.685 97.014 C 9.685 97.014 9.685 97.014 9.685 97.014 C 9.685 92.721 9.734 88.437 9.822 84.144 C 9.901 80.322 10.058 76.51 10.275 72.688 C 10.472 69.308 10.747 65.938 11.121 62.578 C 11.445 59.611 11.878 56.664 12.419 53.736 C 12.901 51.162 13.501 48.617 14.249 46.102 C 14.898 43.892 15.704 41.72 16.649 39.608 C 17.504 37.712 18.518 35.894 19.678 34.165 C 20.78 32.544 22.029 31.031 23.416 29.646 C 24.803 28.26 26.318 27.013 27.941 25.922 C 29.672 24.763 31.501 23.751 33.41 22.896 C 35.515 21.953 37.688 21.147 39.911 20.499 C 42.43 19.762 44.987 19.153 47.564 18.681 C 50.495 18.131 53.456 17.699 56.427 17.384 C 59.791 17.011 63.174 16.736 66.558 16.539 C 70.384 16.323 74.21 16.176 78.037 16.087 C 82.335 15.999 86.634 15.95 90.932 15.96 C 90.932 15.96 90.932 15.96 90.942 15.96 L 165.068 15.96 C 165.078 15.96 165.078 15.96 165.078 15.96 Z"/>
  </g>
  <g>
   <defs>
    <filter id="IFhwPeHn75qMBbGmBdc4frxyS2Ranois" width="400%" height="400%" x="-200%" y="-200%" color-interpolation-filters="sRGB" filterUnits="objectBoundingBox">
     <feGaussianBlur xmlns="http://www.w3.org/2000/svg" stdDeviation="4.294"/>
    </filter>
   </defs>
   <g opacity=".4" filter="url(#IFhwPeHn75qMBbGmBdc4frxyS2Ranois)">
    <path d="M 129.019 45.243 C 82.616 45.243 45 82.859 45 129.261 C 45 175.664 82.616 213.28 129.019 213.28 C 175.421 213.28 213.037 175.664 213.037 129.261 C 213.037 82.859 175.421 45.243 129.019 45.243 Z"/>
   </g>
   <linearGradient id="_lgradient_26" x1=".5" x2=".5" y1="0" y2="1" gradientTransform="matrix(168.038,0,0,168.038,45,42.333)" gradientUnits="userSpaceOnUse">
    <stop offset="0%" style="stop-color:#d5c4a1"/>
    <stop offset="100%" style="stop-color:#665c54"/>
   </linearGradient>
   <path fill="url(#_lgradient_26)" d="M 45 126.352 C 45 172.723 82.648 210.371 129.019 210.371 C 175.39 210.371 213.038 172.723 213.038 126.352 C 213.038 79.981 175.39 42.333 129.019 42.333 C 82.648 42.333 45 79.981 45 126.352 Z"/>
   <g opacity=".2">
    <path d="M 129.019 199.868 C 89.471 199.868 57.412 167.809 57.412 128.261 C 57.412 88.714 89.471 56.655 129.019 56.655 C 168.566 56.655 200.625 88.714 200.625 128.261 C 200.625 167.809 168.566 199.868 129.019 199.868 Z"/>
   </g>
   <linearGradient id="_lgradient_27" x1=".565" x2=".56" y1="1" y2=".018" gradientTransform="matrix(143.213,0,0,143.214,57.412,54.745)" gradientUnits="userSpaceOnUse">
    <stop offset="0%" style="stop-color:#a89984"/>
    <stop offset="100%" style="stop-color:#ebdbb2"/>
   </linearGradient>
   <path fill="url(#_lgradient_27)" d="M 129.019 197.959 C 89.471 197.959 57.412 165.899 57.412 126.352 C 57.412 86.805 89.471 54.745 129.019 54.745 C 168.566 54.745 200.625 86.805 200.625 126.352 C 200.625 165.899 168.566 197.959 129.019 197.959 Z"/>
   <path fill="#a89984" fill-rule="evenodd" d="M 114.953 105.809 C 114.426 104.896 114.739 103.727 115.652 103.2 C 116.565 102.673 117.734 102.986 118.261 103.899 C 118.788 104.812 118.475 105.981 117.562 106.508 C 116.649 107.035 115.48 106.722 114.953 105.809 L 114.953 105.809 L 114.953 105.809 L 114.953 105.809 L 114.953 105.809 L 114.953 105.809 L 114.953 105.809 L 114.953 105.809 L 114.953 105.809 L 114.953 105.809 L 114.953 105.809 Z M 139.776 148.805 C 139.249 147.892 139.562 146.723 140.475 146.196 C 141.388 145.669 142.557 145.982 143.084 146.895 C 143.611 147.808 143.298 148.977 142.385 149.504 C 141.472 150.031 140.303 149.718 139.776 148.805 L 139.776 148.805 L 139.776 148.805 L 139.776 148.805 L 139.776 148.805 L 139.776 148.805 L 139.776 148.805 L 139.776 148.805 L 139.776 148.805 L 139.776 148.805 L 139.776 148.805 Z M 106.566 115.594 C 105.653 115.067 105.34 113.898 105.867 112.985 C 106.394 112.072 107.563 111.759 108.476 112.286 C 109.389 112.813 109.702 113.982 109.175 114.895 C 108.648 115.808 107.479 116.121 106.566 115.594 L 106.566 115.594 L 106.566 115.594 L 106.566 115.594 L 106.566 115.594 L 106.566 115.594 L 106.566 115.594 L 106.566 115.594 L 106.566 115.594 L 106.566 115.594 Z M 149.562 140.418 C 148.649 139.891 148.336 138.722 148.863 137.809 C 149.39 136.896 150.559 136.583 151.472 137.11 C 152.385 137.637 152.698 138.806 152.171 139.719 C 151.644 140.632 150.475 140.945 149.562 140.418 L 149.562 140.418 L 149.562 140.418 L 149.562 140.418 L 149.562 140.418 L 149.562 140.418 L 149.562 140.418 L 149.562 140.418 L 149.562 140.418 Z M 104.195 128.262 C 103.141 128.262 102.285 127.406 102.285 126.352 C 102.285 125.298 103.141 124.442 104.195 124.442 C 105.249 124.442 106.105 125.298 106.105 126.352 C 106.105 127.406 105.249 128.262 104.195 128.262 L 104.195 128.262 L 104.195 128.262 L 104.195 128.262 L 104.195 128.262 L 104.195 128.262 L 104.195 128.262 L 104.195 128.262 Z M 153.842 128.262 C 152.788 128.262 151.932 127.406 151.932 126.352 C 151.932 125.298 152.788 124.442 153.842 124.442 C 154.896 124.442 155.752 125.298 155.752 126.352 C 155.752 127.406 154.896 128.262 153.842 128.262 L 153.842 128.262 L 153.842 128.262 L 153.842 128.262 L 153.842 128.262 L 153.842 128.262 L 153.842 128.262 Z M 108.476 140.418 C 107.563 140.945 106.394 140.632 105.867 139.719 C 105.34 138.806 105.653 137.637 106.566 137.11 C 107.479 136.583 108.648 136.896 109.175 137.809 C 109.702 138.722 109.389 139.891 108.476 140.418 L 108.476 140.418 L 108.476 140.418 L 108.476 140.418 L 108.476 140.418 L 108.476 140.418 Z M 151.472 115.594 C 150.559 116.121 149.39 115.808 148.863 114.895 C 148.336 113.982 148.649 112.813 149.562 112.286 C 150.475 111.759 151.644 112.072 152.171 112.985 C 152.698 113.898 152.385 115.067 151.472 115.594 L 151.472 115.594 L 151.472 115.594 L 151.472 115.594 L 151.472 115.594 Z M 118.261 148.805 C 117.734 149.718 116.565 150.031 115.652 149.504 C 114.739 148.977 114.426 147.808 114.953 146.895 C 115.48 145.982 116.649 145.669 117.562 146.196 C 118.475 146.723 118.788 147.892 118.261 148.805 L 118.261 148.805 L 118.261 148.805 L 118.261 148.805 Z M 143.084 105.809 C 142.557 106.722 141.388 107.035 140.475 106.508 C 139.562 105.981 139.249 104.812 139.776 103.899 C 140.303 102.986 141.472 102.673 142.385 103.2 C 143.298 103.727 143.611 104.896 143.084 105.809 L 143.084 105.809 L 143.084 105.809 Z M 130.929 151.176 C 130.929 152.23 130.073 153.086 129.019 153.086 C 127.965 153.086 127.109 152.23 127.109 151.176 C 127.109 150.122 127.965 149.266 129.019 149.266 C 130.073 149.266 130.929 150.122 130.929 151.176 L 130.929 151.176 Z M 130.929 101.528 C 130.929 102.582 130.073 103.438 129.019 103.438 C 127.965 103.438 127.109 102.582 127.109 101.528 C 127.109 100.474 127.965 99.618 129.019 99.618 C 130.073 99.618 130.929 100.474 130.929 101.528 Z"/>
   <circle fill="#ebdbb2" cx="129.019" cy="126.352" r="19.095" vector-effect="non-scaling-stroke"/>
   <circle fill="#504945" cx="129.019" cy="126.352" r="3.819" vector-effect="non-scaling-stroke"/>
   <defs>
    <filter id="SZjG2dOTD35CZHp5UvJHRmrN1mVQNfpM" width="400%" height="400%" x="-200%" y="-200%" color-interpolation-filters="sRGB" filterUnits="objectBoundingBox">
     <feGaussianBlur xmlns="http://www.w3.org/2000/svg" in="SourceGraphic" stdDeviation="4.294"/>
     <feOffset xmlns="http://www.w3.org/2000/svg" dx="0" dy="4" result="pf_100_offsetBlur"/>
     <feFlood xmlns="http://www.w3.org/2000/svg" flood-opacity=".4"/>
     <feComposite xmlns="http://www.w3.org/2000/svg" in2="pf_100_offsetBlur" operator="in" result="pf_100_dropShadow"/>
     <feBlend xmlns="http://www.w3.org/2000/svg" in="SourceGraphic" in2="pf_100_dropShadow" mode="normal"/>
    </filter>
   </defs>
   <g filter="url(#SZjG2dOTD35CZHp5UvJHRmrN1mVQNfpM)">
    <path fill="#d5c4a1" fill-rule="evenodd" d="M 178.194 166.292 C 178.194 166.292 65.537 208.34 59.425 209.977 C 53.313 211.615 47.031 207.988 45.393 201.876 C 43.756 195.764 47.383 189.482 53.495 187.844 C 59.607 186.206 178.194 166.292 178.194 166.292 L 178.194 166.292 L 178.194 166.292 L 178.194 166.292 Z M 52.638 198.913 C 52.638 196.805 54.349 195.094 56.457 195.094 C 58.565 195.094 60.276 196.805 60.276 198.913 C 60.276 201.021 58.565 202.732 56.457 202.732 C 54.349 202.732 52.638 201.021 52.638 198.913 Z"/>
   </g>
   <g opacity=".2">
    <path fill="#ebdbb2" d="M 129.019 54.745 C 89.471 54.745 57.412 86.805 57.412 126.352 C 57.412 126.672 57.432 126.987 57.436 127.307 C 57.95 88.201 89.792 56.655 129.019 56.655 C 168.246 56.655 200.088 88.201 200.601 127.307 C 200.605 126.987 200.626 126.672 200.626 126.352 C 200.626 86.805 168.566 54.745 129.019 54.745 L 129.019 54.745 L 129.019 54.745 L 129.019 54.745 Z"/>
   </g>
   <g opacity=".4">
    <path fill="#ebdbb2" d="M 56.457 49.971 C 55.444 49.971 54.473 50.374 53.757 51.09 C 53.04 51.806 52.638 52.778 52.638 53.79 C 52.638 55.9 54.348 57.609 56.457 57.609 C 58.566 57.609 60.276 55.9 60.276 53.79 C 60.276 52.778 59.874 51.806 59.158 51.09 C 58.441 50.374 57.47 49.971 56.457 49.971 L 56.457 49.971 L 56.457 49.971 L 56.457 49.971 Z M 201.58 49.971 C 200.567 49.971 199.596 50.374 198.88 51.09 C 198.163 51.806 197.761 52.778 197.761 53.79 C 197.761 54.803 198.163 55.775 198.88 56.491 C 199.596 57.207 200.567 57.609 201.58 57.609 C 203.689 57.609 205.399 55.9 205.399 53.79 C 205.399 52.778 204.997 51.806 204.281 51.09 C 203.564 50.374 202.593 49.971 201.58 49.971 L 201.58 49.971 L 201.58 49.971 L 201.58 49.971 Z M 201.58 195.094 C 200.567 195.094 199.596 195.497 198.88 196.213 C 198.163 196.929 197.761 197.901 197.761 198.913 C 197.761 199.926 198.163 200.898 198.88 201.614 C 199.596 202.33 200.567 202.732 201.58 202.732 C 203.689 202.732 205.399 201.023 205.399 198.913 C 205.399 196.804 203.689 195.094 201.58 195.094 L 201.58 195.094 L 201.58 195.094 L 201.58 195.094 Z"/>
   </g>
  </g>
 </g>
</svg>
